public/assets/images/logo/03.svg

<svg width="119" height="38" viewBox="0 0 119 38" fill="none" xmlns="http://www.w3.org/2000/svg">
<g clip-path="url(#clip0_260_3622)">
<path d="M15.7732 25.7961C14.9921 26.5772 13.7258 26.5772 12.9448 25.7961L9.41176 22.2631C5.91251 18.7639 0 21.2375 0 26.1847V30.6402C0 31.7448 0.89543 32.6402 2 32.6402H26.7179C27.8225 32.6402 28.7179 31.7448 28.7179 30.6402V17.6798C28.7179 15.898 26.5636 15.0057 25.3037 16.2656L15.7732 25.7961Z" fill="#615EFC"/>
<path d="M12.9448 6.84407C13.7258 6.06303 14.9921 6.06303 15.7732 6.84407L19.3062 10.3771C22.8054 13.8763 28.7179 11.4027 28.7179 6.4555V2C28.7179 0.895429 27.8225 0 26.7179 0H2C0.895429 0 0 0.895431 0 2V14.9604C0 16.7422 2.15428 17.6345 3.41421 16.3746L12.9448 6.84407Z" fill="#615EFC"/>
<path d="M48.5107 29.3204H41.8662V25.2071H48.2646C50.0811 25.2071 51.5986 24.879 52.8174 24.2227C54.0479 23.5547 54.9678 22.5528 55.5771 21.2168C56.1982 19.8809 56.5088 18.211 56.5088 16.2071C56.5088 14.2031 56.2041 12.5391 55.5947 11.2149C54.9854 9.89063 54.0771 8.90039 52.8701 8.24414C51.6631 7.57617 50.1689 7.24219 48.3877 7.24219H41.7256V3.12891H48.6689C51.2705 3.12891 53.5029 3.65039 55.3662 4.69336C57.2412 5.73633 58.6826 7.23633 59.6904 9.19336C60.6982 11.1504 61.2021 13.4883 61.2021 16.2071C61.2021 18.9258 60.6982 21.2696 59.6904 23.2383C58.6826 25.1954 57.2295 26.7012 55.3311 27.7559C53.4443 28.7989 51.1709 29.3204 48.5107 29.3204ZM44.3623 3.12891V29.3204H39.6162V3.12891H44.3623ZM64.1377 29.3204V9.66797H68.7607V29.3204H64.1377ZM66.458 6.9082C65.7197 6.9082 65.0869 6.66211 64.5596 6.16992C64.0322 5.67774 63.7686 5.08594 63.7686 4.39453C63.7686 3.69141 64.0322 3.09375 64.5596 2.60156C65.0869 2.10938 65.7197 1.86328 66.458 1.86328C67.1846 1.86328 67.8115 2.10938 68.3389 2.60156C68.8662 3.09375 69.1299 3.68555 69.1299 4.37695C69.1299 5.08008 68.8662 5.67774 68.3389 6.16992C67.8115 6.66211 67.1846 6.9082 66.458 6.9082ZM80.6963 37.0899C78.2002 37.0899 76.2373 36.6035 74.8076 35.6309C73.3779 34.67 72.458 33.504 72.0479 32.1329L76.1963 31.1133C76.3838 31.5001 76.6592 31.8808 77.0225 32.2558C77.3857 32.6425 77.8721 32.959 78.4814 33.205C79.0908 33.4628 79.8584 33.5918 80.7842 33.5918C82.0967 33.5918 83.1807 33.2696 84.0361 32.6251C84.9033 31.9922 85.3369 30.9551 85.3369 29.5137V25.8047H85.0732C84.8506 26.2735 84.5107 26.7598 84.0537 27.2637C83.5967 27.7559 82.9932 28.1778 82.2432 28.5293C81.5049 28.8692 80.5674 29.0391 79.4307 29.0391C77.9307 29.0391 76.5654 28.6817 75.335 27.9668C74.1162 27.252 73.1436 26.1856 72.417 24.7676C71.7021 23.3497 71.3447 21.5743 71.3447 19.4415C71.3447 17.2852 71.7021 15.4629 72.417 13.9747C73.1436 12.4864 74.1221 11.3555 75.3525 10.5821C76.583 9.80859 77.9541 9.42188 79.4658 9.42188C80.6143 9.42188 81.5635 9.61524 82.3135 10.002C83.0635 10.3887 83.6611 10.8575 84.1064 11.4083C84.5518 11.9473 84.8975 12.4512 85.1436 12.92H85.3896V9.66797H89.9072V29.6368C89.9072 31.3126 89.5088 32.7012 88.7119 33.8028C87.915 34.9043 86.8193 35.7246 85.4248 36.2636C84.042 36.8144 82.4658 37.0899 80.6963 37.0899ZM80.7314 25.4004C82.208 25.4004 83.3447 24.8731 84.1416 23.8184C84.9502 22.752 85.3545 21.2813 85.3545 19.4063C85.3545 18.1641 85.1787 17.0801 84.8271 16.1543C84.4756 15.2286 83.9541 14.5079 83.2627 13.9922C82.5713 13.4766 81.7275 13.2188 80.7314 13.2188C79.7002 13.2188 78.8389 13.4883 78.1475 14.0274C77.4561 14.5665 76.9346 15.3047 76.583 16.2422C76.2432 17.168 76.0732 18.2227 76.0732 19.4063C76.0732 20.6016 76.249 21.6504 76.6006 22.5528C76.9521 23.4551 77.4736 24.1583 78.165 24.6622C78.8682 25.1543 79.7236 25.4004 80.7314 25.4004ZM93.3174 29.3204V9.66797H97.9404V29.3204H93.3174ZM95.6377 6.9082C94.8994 6.9082 94.2666 6.66211 93.7393 6.16992C93.2119 5.67774 92.9482 5.08594 92.9482 4.39453C92.9482 3.69141 93.2119 3.09375 93.7393 2.60156C94.2666 2.10938 94.8994 1.86328 95.6377 1.86328C96.3643 1.86328 96.9912 2.10938 97.5186 2.60156C98.0459 3.09375 98.3096 3.68555 98.3096 4.37695C98.3096 5.08008 98.0459 5.67774 97.5186 6.16992C96.9912 6.66211 96.3643 6.9082 95.6377 6.9082ZM105.147 9.66797L109.103 16.9454L113.128 9.66797H118.032L112.126 19.5118L118.138 29.3204H113.269L109.103 22.254L105.007 29.3204H100.103L106.062 19.5118L100.243 9.66797H105.147Z" fill="#050D20"/>
</g>
<defs>
<clipPath id="clip0_260_3622">
<rect width="119" height="38" fill="white"/>
</clipPath>
</defs>
</svg>

<svg xmlns="http://www.w3.org/2000/svg" width="119" height="38" fill="none" viewBox="0 0 119 38"><g clip-path="url(#a)"><path fill="#615efc" d="M15.773 25.796a2 2 0 0 1-2.828 0l-3.533-3.533C5.912 18.763 0 21.237 0 26.185v4.455a2 2 0 0 0 2 2h24.718a2 2 0 0 0 2-2V17.68c0-1.782-2.154-2.674-3.414-1.414zM12.945 6.844a2 2 0 0 1 2.828 0l3.533 3.533c3.5 3.5 9.412 1.026 9.412-3.922V2a2 2 0 0 0-2-2H2a2 2 0 0 0-2 2v12.96c0 1.782 2.154 2.674 3.414 1.415z"/><path fill="#050d20" d="M48.51 29.32h-6.644v-4.113h6.399q2.725 0 4.552-.984 1.845-1.002 2.76-3.006.932-2.004.932-5.01t-.914-4.992-2.725-2.97q-1.81-1.003-4.482-1.003h-6.662V3.13h6.943q3.903 0 6.697 1.564 2.813 1.564 4.324 4.5 1.512 2.936 1.512 7.014t-1.512 7.031q-1.51 2.936-4.359 4.518-2.83 1.564-6.82 1.564M44.363 3.13v26.19h-4.746V3.13zm19.775 26.19V9.668h4.623V29.32zm2.32-22.412a2.68 2.68 0 0 1-1.898-.738q-.791-.738-.791-1.775 0-1.055.79-1.793a2.68 2.68 0 0 1 1.899-.739q1.09 0 1.88.739.792.738.792 1.775 0 1.054-.791 1.793a2.66 2.66 0 0 1-1.881.738M80.696 37.09q-3.744 0-5.888-1.46-2.145-1.44-2.76-3.497l4.148-1.02q.282.58.826 1.143.545.58 1.46.949.913.387 2.302.387 1.97 0 3.252-.967 1.3-.95 1.3-3.111v-3.71h-.263q-.333.704-1.02 1.46-.684.738-1.81 1.265-1.108.51-2.812.51-2.25 0-4.096-1.072-1.828-1.072-2.918-3.2-1.072-2.126-1.072-5.325 0-3.236 1.072-5.467 1.09-2.234 2.936-3.393 1.845-1.16 4.113-1.16 1.722 0 2.848.58t1.792 1.406q.668.81 1.038 1.512h.246V9.668h4.517v19.969q0 2.514-1.195 4.166t-3.287 2.46q-2.075.827-4.729.827m.035-11.69q2.216 0 3.41-1.582 1.214-1.6 1.213-4.412 0-1.863-.527-3.252t-1.564-2.162-2.532-.773q-1.546 0-2.584.808-1.035.81-1.564 2.215-.51 1.389-.51 3.164 0 1.793.528 3.147.527 1.353 1.564 2.11 1.055.737 2.566.737m12.586 3.92V9.668h4.623V29.32zm2.32-22.412a2.68 2.68 0 0 1-1.898-.738q-.79-.738-.79-1.775 0-1.055.79-1.793a2.68 2.68 0 0 1 1.899-.739q1.09 0 1.88.739.792.738.792 1.775 0 1.054-.791 1.793a2.66 2.66 0 0 1-1.881.738m9.51 2.76 3.956 7.277 4.025-7.277h4.904l-5.906 9.844 6.012 9.808h-4.869l-4.166-7.066-4.096 7.066h-4.904l5.959-9.808-5.819-9.844z"/></g><defs><clipPath id="a"><path fill="#fff" d="M0 0h119v38H0z"/></clipPath></defs></svg>
